src/assets/outline/CardRemove.svg

<svg width="24" height="24" viewBox="0 0 24 24"  xmlns="http://www.w3.org/2000/svg">
<path d="M21.8999 10.78H1.8999C1.4899 10.78 1.1499 10.44 1.1499 10.03C1.1499 9.62003 1.4899 9.28003 1.8999 9.28003H21.8999C22.3099 9.28003 22.6499 9.62003 22.6499 10.03C22.6499 10.44 22.3199 10.78 21.8999 10.78Z" />
<path d="M11.4599 21.28H6.34985C2.36985 21.28 1.1499 20.08 1.1499 16.14V7.91998C1.1499 4.76998 1.81989 3.01998 5.38989 2.80998C5.69989 2.79998 6.00985 2.78998 6.34985 2.78998H17.4599C21.4399 2.78998 22.6599 3.98998 22.6599 7.92998V12.34C22.6599 12.75 22.3199 13.09 21.9099 13.09C21.4999 13.09 21.1599 12.75 21.1599 12.34V7.92998C21.1599 4.83998 20.6099 4.28998 17.4599 4.28998H6.34985C6.02985 4.28998 5.7399 4.29998 5.4599 4.30998C3.2899 4.43998 2.6499 4.92998 2.6499 7.92998V16.15C2.6499 19.24 3.19985 19.79 6.34985 19.79H11.4599C11.8699 19.79 12.2099 20.13 12.2099 20.54C12.2099 20.95 11.8699 21.28 11.4599 21.28Z" />
<path d="M17.8999 22.78C15.2799 22.78 13.1499 20.65 13.1499 18.03C13.1499 15.41 15.2799 13.28 17.8999 13.28C20.5199 13.28 22.6499 15.41 22.6499 18.03C22.6499 20.65 20.5199 22.78 17.8999 22.78ZM17.8999 14.78C16.1099 14.78 14.6499 16.24 14.6499 18.03C14.6499 19.82 16.1099 21.28 17.8999 21.28C19.6899 21.28 21.1499 19.82 21.1499 18.03C21.1499 16.24 19.6899 14.78 17.8999 14.78Z" />
<path d="M18.9698 19.9C18.7798 19.9 18.5898 19.83 18.4398 19.68L16.3298 17.57C16.0398 17.28 16.0398 16.8 16.3298 16.51C16.6198 16.22 17.0998 16.22 17.3898 16.51L19.4998 18.62C19.7898 18.91 19.7898 19.39 19.4998 19.68C19.3598 19.82 19.1598 19.9 18.9698 19.9Z" />
<path d="M16.83 19.92C16.64 19.92 16.45 19.85 16.3 19.7C16.01 19.41 16.01 18.93 16.3 18.64L18.41 16.53C18.7 16.24 19.18 16.24 19.47 16.53C19.76 16.82 19.76 17.3 19.47 17.59L17.36 19.7C17.22 19.85 17.03 19.92 16.83 19.92Z" />
<path d="M9.8999 16.78H5.8999C5.4899 16.78 5.1499 16.44 5.1499 16.03C5.1499 15.62 5.4899 15.28 5.8999 15.28H9.8999C10.3099 15.28 10.6499 15.62 10.6499 16.03C10.6499 16.44 10.3199 16.78 9.8999 16.78Z" />
</svg>

<?xml version="1.0" encoding="UTF-8"?>
<svg width="24" height="24" viewBox="0 0 24 24" xmlns="http://www.w3.org/2000/svg">
 <path d="m21.9 10.78h-20c-0.41 0-0.75-0.34-0.75-0.75 0-0.40997 0.34-0.74997 0.75-0.74997h20c0.41 0 0.75 0.34 0.75 0.74997 0 0.41-0.33 0.75-0.75 0.75z"/>
 <path d="m11.46 21.28h-5.11c-3.98 0-5.2-1.2-5.2-5.14v-8.22c0-3.15 0.66999-4.9 4.24-5.11 0.31-0.01 0.61996-0.02 0.95996-0.02h11.11c3.98 0 5.2 1.2 5.2 5.14v4.41c0 0.41-0.34 0.75-0.75 0.75s-0.75-0.34-0.75-0.75v-4.41c0-3.09-0.55-3.64-3.7-3.64h-11.11c-0.32 0-0.60995 0.01-0.88995 0.02-2.17 0.13-2.81 0.62-2.81 3.62v8.22c0 3.09 0.54995 3.64 3.7 3.64h5.11c0.41 0 0.75 0.34 0.75 0.75s-0.34 0.74-0.75 0.74z"/>
 <path d="m17.9 22.78c-2.62 0-4.75-2.13-4.75-4.75s2.13-4.75 4.75-4.75 4.75 2.13 4.75 4.75-2.13 4.75-4.75 4.75zm0-8c-1.79 0-3.25 1.46-3.25 3.25s1.46 3.25 3.25 3.25 3.25-1.46 3.25-3.25-1.46-3.25-3.25-3.25z"/>
 <path d="m18.97 19.9c-0.19 0-0.38-0.07-0.53-0.22l-2.11-2.11c-0.29-0.29-0.29-0.77 0-1.06s0.77-0.29 1.06 0l2.11 2.11c0.29 0.29 0.29 0.77 0 1.06-0.14 0.14-0.34 0.22-0.53 0.22z"/>
 <path d="m16.83 19.92c-0.19 0-0.38-0.07-0.53-0.22-0.29-0.29-0.29-0.77 0-1.06l2.11-2.11c0.29-0.29 0.77-0.29 1.06 0s0.29 0.77 0 1.06l-2.11 2.11c-0.14 0.15-0.33 0.22-0.53 0.22z"/>
 <path d="m9.8999 16.78h-4c-0.41 0-0.75-0.34-0.75-0.75s0.34-0.75 0.75-0.75h4c0.41 0 0.75 0.34 0.75 0.75s-0.33 0.75-0.75 0.75z"/>
</svg>
